Obsidian/status/22s/network-wireless-acquiring.svg

<svg height="22" width="22" xmlns="http://www.w3.org/2000/svg"><g fill="#d3dae3"><path d="m11.03109 5.00005c-3.03441 0-5.7659 1.12508-8.03121 2.86955l.23242.1304h15.51l.25781-.163c-2.2566-1.72518-4.9577-2.837-7.9688-2.837zm-3.03109 8.99995 3.03109 3 2.96891-3z" opacity=".3"/><path d="m6 9c-1.108 0-2 .892-2 2s.892 2 2 2 2-.892 2-2-.892-2-2-2zm5 0c-1.108 0-2 .892-2 2s.892 2 2 2 2-.892 2-2-.892-2-2-2zm5 0c-1.108 0-2 .892-2 2s.892 2 2 2 2-.892 2-2-.892-2-2-2z"/></g></svg>

<svg xmlns="http://www.w3.org/2000/svg" width="22" height="22" version="1.1">
 <defs>
  <style id="current-color-scheme" type="text/css">
   .ColorScheme-Text { color:#d3dae3; } .ColorScheme-Highlight { color:#5294e2; }
  </style>
 </defs>
 <path style="opacity:0.3;fill:currentColor" class="ColorScheme-Text" d="m 11.03109,5.00005 c -3.03441,0 -5.7659,1.12508 -8.03121,2.86955 L 3.2323,8 18.7423,8 19.00011,7.837 C 16.74351,6.11182 14.04241,5 11.03131,5 Z M 8,14 11.03109,17 14,14 Z"/>
 <path style="fill:currentColor" class="ColorScheme-Text" d="M 6,9 C 4.892,9 4,9.892 4,11 4,12.108 4.892,13 6,13 7.108,13 8,12.108 8,11 8,9.892 7.108,9 6,9 Z m 5,0 c -1.108,0 -2,0.892 -2,2 0,1.108 0.892,2 2,2 1.108,0 2,-0.892 2,-2 0,-1.108 -0.892,-2 -2,-2 z m 5,0 c -1.108,0 -2,0.892 -2,2 0,1.108 0.892,2 2,2 1.108,0 2,-0.892 2,-2 0,-1.108 -0.892,-2 -2,-2 z"/>
</svg>
